!!!!SEGMENT: pl-sa--177-a-v-7--008_luna-georgius--missa-ex-d-dona.krn
!!!cenid: 17xx:472
!!!COM: Luna, Georgius
!!!COM-rismid: pe41010079
!!!CDT:
!!!CNT:
!!!OPR: Missa ex D
!!!OTL: Dona
!!!OMV: 008
!!!PDT:
!!!AGN: Sacred; Mass
!!!SMS-siglum: PL-SA
!!!SMS-shelfmark: 177/A V 7
!!!SMS-shelfwork: 001-008 M
!!!SMS-variant:
!!!SMS-altvar:
!!!NIFC-rismid: 1001035883
!!!URL-scan: http://bc.bdsandomierz.pl/dlibra/publication/1512/edition/1480/content
!!!ONB-nifc: UWAGA; części Mszy: Sinfonia, Kyrie, Gloria, Patrem, Sanctus, Benedictus, Agnus, Dona. UWAGA: brak partii cornu primo, cornu secundo
**kern	**kern	**kern	**kern	**kern	**text	**kern	**kern	**kern	**kern	**kern	**kern
*part11	*part10	*part9	*part8	*part7	*part7	*part6	*part5	*part4	*part3	*part2	*part1
*staff11	*staff10	*staff9	*staff8	*staff7	*staff7	*staff6	*staff5	*staff4	*staff3	*staff2	*staff1
*Iempty	*Ivioln	*Ivioln	*Itenor	*Ivox	*	*Iempty	*Iempty	*Iempty	*Iempty	*Ioboe	*Ioboe
*I"Fundamento	*I"Violino Secundo	*I"Violino Primo	*I"Tenore	*I"Canto	*	*I"Clarino Secundo	*I"Clarino Primo	*I"Cornu Secundo	*I"Cornu Primo	*I"Hobois 2do	*I"Hobois Primo
*I'bc	*I'vl II	*I'vl I	*I'T	*I'C	*	*I'clno II	*I'clno I	*I'cor II	*I'cor I	*I'ob II	*I'ob I
*clefF4	*clefG2	*clefG2	*clefC4	*clefC1	*	*clefG2	*clefG2	*clefG2	*clefG2	*clefG2	*clefG2
*	*	*	*	*	*	*ITrd-1c-2	*ITrd-1c-2	*ITrd6c10	*ITrd6c10	*	*
*k[f#c#]	*k[f#c#]	*k[f#c#]	*k[f#c#]	*k[f#c#]	*	*k[f#c#]	*k[f#c#]	*k[f#c#]	*k[f#c#]	*k[f#c#]	*k[f#c#]
*b:	*b:	*b:	*b:	*b:	*	*b:	*b:	*b:	*b:	*b:	*b:
*M2/4	*M2/4	*M2/4	*M2/4	*M2/4	*	*M2/4	*M2/4	*M2/4	*M2/4	*M2/4	*M2/4
=1	=1	=1	=1	=1	=1	=1	=1	=1	=1	=1	=1
!LO:TX:a:B:t=Dona ut kirie Allo	!LO:TX:a:B:t=Dona ut kirie Allo	!LO:TX:a:B:t=Dona nobis ut kirie\nAllo	!LO:TX:a:B:t=Dona nobis\nKyrie Allegro	!LO:TX:a:B:t=Allo	!	!LO:TX:a:B:t=Dono nobis\nUt kirie Allo	!LO:TX:a:B:t=Dona ut kirie Allo	!LO:TX:t=P:problem:brak skanów	!LO:TX:t=P:problem:brak skanów	!LO:TX:t=P:problem:partia nie występuje w części Dona	!LO:TX:t=P:problem:partia nie występuje w części Dona
2ryy	2ryy	2ryy	2ryy	8ff#\	Do-	2ryy	2ryy	2ryy	2ryy	2ryy	2ryy
.	.	.	.	8ff#\	-na	.	.	.	.	.	.
.	.	.	.	4ff#\	no-	.	.	.	.	.	.
=2	=2	=2	=2	=2	=2	=2	=2	=2	=2	=2	=2
2ryy	2ryy	2ryy	2ryy	4ff#\	-bis	2ryy	2ryy	2ryy	2ryy	2ryy	2ryy
.	.	.	.	4r	.	.	.	.	.	.	.
=3	=3	=3	=3	=3	=3	=3	=3	=3	=3	=3	=3
!	!	!	!	!LO:N:vis=0	!	!	!	!	!	!	!
2ryy	2ryy	2ryy	2ryy	1r	.	2ryy	2ryy	2ryy	2ryy	2ryy	2ryy
=4	=4	=4	=4	=4	=4	=4	=4	=4	=4	=4	=4
2ryy	2ryy	2ryy	2ryy	.	.	2ryy	2ryy	2ryy	2ryy	2ryy	2ryy
=5	=5	=5	=5	=5	=5	=5	=5	=5	=5	=5	=5
2ryy	2ryy	2ryy	2ryy	2r	.	2ryy	2ryy	2ryy	2ryy	2ryy	2ryy
=6	=6	=6	=6	=6	=6	=6	=6	=6	=6	=6	=6
2ryy	2ryy	2ryy	2ryy	4r	.	2ryy	2ryy	2ryy	2ryy	2ryy	2ryy
.	.	.	.	8r	.	.	.	.	.	.	.
.	.	.	.	(8ff#\	pa-	.	.	.	.	.	.
=7	=7	=7	=7	=7	=7	=7	=7	=7	=7	=7	=7
2ryy	2ryy	2ryy	2ryy	4gg\)	.	2ryy	2ryy	2ryy	2ryy	2ryy	2ryy
.	.	.	.	4ee\	.	.	.	.	.	.	.
=8	=8	=8	=8	=8	=8	=8	=8	=8	=8	=8	=8
2ryy	2ryy	2ryy	2ryy	4ff#\	-cem	2ryy	2ryy	2ryy	2ryy	2ryy	2ryy
.	.	.	.	4ff#\	da	.	.	.	.	.	.
=9	=9	=9	=9	=9	=9	=9	=9	=9	=9	=9	=9
*	*	*	*	*2\right	*	*	*	*	*	*	*
2ryy	2ryy	2ryy	2ryy	2ff#\	pa-	2ryy	2ryy	2ryy	2ryy	2ryy	2ryy
=10	=10	=10	=10	=10	=10	=10	=10	=10	=10	=10	=10
2ryy	2ryy	2ryy	2ryy	4ee\	-cem	2ryy	2ryy	2ryy	2ryy	2ryy	2ryy
.	.	.	.	4ee\	da	.	.	.	.	.	.
=11	=11	=11	=11	=11	=11	=11	=11	=11	=11	=11	=11
2ryy	2ryy	2ryy	2ryy	2ff#\	pa-	2ryy	2ryy	2ryy	2ryy	2ryy	2ryy
=12	=12	=12	=12	=12	=12	=12	=12	=12	=12	=12	=12
2ryy	2ryy	2ryy	2ryy	4ee\	-cem	2ryy	2ryy	2ryy	2ryy	2ryy	2ryy
.	.	.	.	4gg\	da	.	.	.	.	.	.
!	!	!	!	!LO:LB:g=original	!	!	!	!	!	!	!
=13	=13	=13	=13	=13	=13	=13	=13	=13	=13	=13	=13
2ryy	2ryy	2ryy	2ryy	2gg\	pa-	2ryy	2ryy	2ryy	2ryy	2ryy	2ryy
=14	=14	=14	=14	=14	=14	=14	=14	=14	=14	=14	=14
2ryy	2ryy	2ryy	2ryy	4ff#\	-cem	2ryy	2ryy	2ryy	2ryy	2ryy	2ryy
.	.	.	.	4ff#\	da	.	.	.	.	.	.
=15	=15	=15	=15	=15	=15	=15	=15	=15	=15	=15	=15
2ryy	2ryy	2ryy	2ryy	2ee\	pa-	2ryy	2ryy	2ryy	2ryy	2ryy	2ryy
=16	=16	=16	=16	=16	=16	=16	=16	=16	=16	=16	=16
2ryy	2ryy	2ryy	2ryy	4ff#\	-cem	2ryy	2ryy	2ryy	2ryy	2ryy	2ryy
.	.	.	.	4ff#\	da	.	.	.	.	.	.
=17	=17	=17	=17	=17	=17	=17	=17	=17	=17	=17	=17
2ryy	2ryy	2ryy	2ryy	8ee\L	pa-	2ryy	2ryy	2ryy	2ryy	2ryy	2ryy
.	.	.	.	8dd\	.	.	.	.	.	.	.
.	.	.	.	8cc#\	.	.	.	.	.	.	.
.	.	.	.	8b\J	.	.	.	.	.	.	.
=18	=18	=18	=18	=18	=18	=18	=18	=18	=18	=18	=18
2ryy	2ryy	2ryy	2ryy	8cc#\L	.	2ryy	2ryy	2ryy	2ryy	2ryy	2ryy
.	.	.	.	8dd\	.	.	.	.	.	.	.
.	.	.	.	8ee\	-cem	.	.	.	.	.	.
.	.	.	.	8ff#\J	da	.	.	.	.	.	.
=19	=19	=19	=19	=19	=19	=19	=19	=19	=19	=19	=19
2ryy	2ryy	2ryy	2ryy	8ee\L	pa-	2ryy	2ryy	2ryy	2ryy	2ryy	2ryy
.	.	.	.	8dd\	.	.	.	.	.	.	.
.	.	.	.	8cc#\	.	.	.	.	.	.	.
.	.	.	.	8b\J	.	.	.	.	.	.	.
=20	=20	=20	=20	=20	=20	=20	=20	=20	=20	=20	=20
2ryy	2ryy	2ryy	2ryy	8cc#\	-cem	2ryy	2ryy	2ryy	2ryy	2ryy	2ryy
.	.	.	.	4r	.	.	.	.	.	.	.
.	.	.	.	8ee\	da	.	.	.	.	.	.
=21	=21	=21	=21	=21	=21	=21	=21	=21	=21	=21	=21
2ryy	2ryy	2ryy	2ryy	8dd\L	pa-	2ryy	2ryy	2ryy	2ryy	2ryy	2ryy
.	.	.	.	8ccn\	.	.	.	.	.	.	.
.	.	.	.	8b\	.	.	.	.	.	.	.
.	.	.	.	8a\J	.	.	.	.	.	.	.
=22	=22	=22	=22	=22	=22	=22	=22	=22	=22	=22	=22
2ryy	2ryy	2ryy	2ryy	8b\L	.	2ryy	2ryy	2ryy	2ryy	2ryy	2ryy
.	.	.	.	8ccn\	.	.	.	.	.	.	.
.	.	.	.	8dd\	-cem	.	.	.	.	.	.
.	.	.	.	8ee\J	da	.	.	.	.	.	.
!	!	!	!	!LO:LB:g=original	!	!	!	!	!	!	!
=23	=23	=23	=23	=23	=23	=23	=23	=23	=23	=23	=23
2ryy	2ryy	2ryy	2ryy	8dd\L	pa-	2ryy	2ryy	2ryy	2ryy	2ryy	2ryy
!	!	!	!	!LO:SIC:s=:v:8ccn	!	!	!	!	!	!	!
.	.	.	.	8cc#\	.	.	.	.	.	.	.
.	.	.	.	8b\	.	.	.	.	.	.	.
.	.	.	.	8a\J	.	.	.	.	.	.	.
=24	=24	=24	=24	=24	=24	=24	=24	=24	=24	=24	=24
2ryy	2ryy	2ryy	2ryy	4b\	-cem	2ryy	2ryy	2ryy	2ryy	2ryy	2ryy
.	.	.	.	8r	.	.	.	.	.	.	.
.	.	.	.	8dd\	da	.	.	.	.	.	.
=25	=25	=25	=25	=25	=25	=25	=25	=25	=25	=25	=25
2ryy	2ryy	2ryy	2ryy	2dd\	pa-	2ryy	2ryy	2ryy	2ryy	2ryy	2ryy
=26	=26	=26	=26	=26	=26	=26	=26	=26	=26	=26	=26
2ryy	2ryy	2ryy	2ryy	4dd\	-cem	2ryy	2ryy	2ryy	2ryy	2ryy	2ryy
.	.	.	.	4dd\	da	.	.	.	.	.	.
=27	=27	=27	=27	=27	=27	=27	=27	=27	=27	=27	=27
2ryy	2ryy	2ryy	2ryy	2dd\	pa-	2ryy	2ryy	2ryy	2ryy	2ryy	2ryy
=28	=28	=28	=28	=28	=28	=28	=28	=28	=28	=28	=28
2ryy	2ryy	2ryy	2ryy	4dd\	-cem	2ryy	2ryy	2ryy	2ryy	2ryy	2ryy
.	.	.	.	4dd\	da	.	.	.	.	.	.
=29	=29	=29	=29	=29	=29	=29	=29	=29	=29	=29	=29
2ryy	2ryy	2ryy	2ryy	2ee\	pa-	2ryy	2ryy	2ryy	2ryy	2ryy	2ryy
=30	=30	=30	=30	=30	=30	=30	=30	=30	=30	=30	=30
2ryy	2ryy	2ryy	2ryy	4ff#\	-cem	2ryy	2ryy	2ryy	2ryy	2ryy	2ryy
.	.	.	.	4ff#\	da	.	.	.	.	.	.
=31	=31	=31	=31	=31	=31	=31	=31	=31	=31	=31	=31
2ryy	2ryy	2ryy	2ryy	2ff#\	pa-	2ryy	2ryy	2ryy	2ryy	2ryy	2ryy
=32	=32	=32	=32	=32	=32	=32	=32	=32	=32	=32	=32
2ryy	2ryy	2ryy	2ryy	4ee\	-cem	2ryy	2ryy	2ryy	2ryy	2ryy	2ryy
.	.	.	.	4r	.	.	.	.	.	.	.
=33	=33	=33	=33	=33	=33	=33	=33	=33	=33	=33	=33
2ryy	2ryy	2ryy	2ryy	8cc#\	do-	2ryy	2ryy	2ryy	2ryy	2ryy	2ryy
.	.	.	.	8cc#\	-na	.	.	.	.	.	.
.	.	.	.	4cc#\	no-	.	.	.	.	.	.
!	!	!	!	!LO:LB:g=original	!	!	!	!	!	!	!
=34	=34	=34	=34	=34	=34	=34	=34	=34	=34	=34	=34
2ryy	2ryy	2ryy	2ryy	4cc#\	-bis	2ryy	2ryy	2ryy	2ryy	2ryy	2ryy
.	.	.	.	4r	.	.	.	.	.	.	.
=35	=35	=35	=35	=35	=35	=35	=35	=35	=35	=35	=35
!	!	!	!	!LO:N:vis=00	!	!	!	!	!	!	!
2ryy	2ryy	2ryy	2ryy	0r	.	2ryy	2ryy	2ryy	2ryy	2ryy	2ryy
=36	=36	=36	=36	=36	=36	=36	=36	=36	=36	=36	=36
2ryy	2ryy	2ryy	2ryy	.	.	2ryy	2ryy	2ryy	2ryy	2ryy	2ryy
=37	=37	=37	=37	=37	=37	=37	=37	=37	=37	=37	=37
2ryy	2ryy	2ryy	2ryy	.	.	2ryy	2ryy	2ryy	2ryy	2ryy	2ryy
=38	=38	=38	=38	=38	=38	=38	=38	=38	=38	=38	=38
2ryy	2ryy	2ryy	2ryy	.	.	2ryy	2ryy	2ryy	2ryy	2ryy	2ryy
=39	=39	=39	=39	=39	=39	=39	=39	=39	=39	=39	=39
2ryy	2ryy	2ryy	2ryy	2r	.	2ryy	2ryy	2ryy	2ryy	2ryy	2ryy
=40	=40	=40	=40	=40	=40	=40	=40	=40	=40	=40	=40
2ryy	2ryy	2ryy	2ryy	4r	.	2ryy	2ryy	2ryy	2ryy	2ryy	2ryy
.	.	.	.	8r	.	.	.	.	.	.	.
.	.	.	.	8ee\	pa-	.	.	.	.	.	.
=41	=41	=41	=41	=41	=41	=41	=41	=41	=41	=41	=41
2ryy	2ryy	2ryy	2ryy	4dd\	.	2ryy	2ryy	2ryy	2ryy	2ryy	2ryy
.	.	.	.	4b\	.	.	.	.	.	.	.
=42	=42	=42	=42	=42	=42	=42	=42	=42	=42	=42	=42
2ryy	2ryy	2ryy	2ryy	4cc#\	-cem	2ryy	2ryy	2ryy	2ryy	2ryy	2ryy
.	.	.	.	4cc#\	da	.	.	.	.	.	.
=43	=43	=43	=43	=43	=43	=43	=43	=43	=43	=43	=43
2ryy	2ryy	2ryy	2ryy	2cc#\	pa-	2ryy	2ryy	2ryy	2ryy	2ryy	2ryy
=44	=44	=44	=44	=44	=44	=44	=44	=44	=44	=44	=44
2ryy	2ryy	2ryy	2ryy	4b\	-cem	2ryy	2ryy	2ryy	2ryy	2ryy	2ryy
.	.	.	.	4b\	da	.	.	.	.	.	.
=45	=45	=45	=45	=45	=45	=45	=45	=45	=45	=45	=45
2ryy	2ryy	2ryy	2ryy	2cc#\	pa-	2ryy	2ryy	2ryy	2ryy	2ryy	2ryy
=46	=46	=46	=46	=46	=46	=46	=46	=46	=46	=46	=46
2ryy	2ryy	2ryy	2ryy	4b\	-cem	2ryy	2ryy	2ryy	2ryy	2ryy	2ryy
.	.	.	.	4dd\	da	.	.	.	.	.	.
=47	=47	=47	=47	=47	=47	=47	=47	=47	=47	=47	=47
2ryy	2ryy	2ryy	2ryy	2dd\	pa-	2ryy	2ryy	2ryy	2ryy	2ryy	2ryy
=48	=48	=48	=48	=48	=48	=48	=48	=48	=48	=48	=48
2ryy	2ryy	2ryy	2ryy	4cc#\	-cem	2ryy	2ryy	2ryy	2ryy	2ryy	2ryy
.	.	.	.	4cc#\	da	.	.	.	.	.	.
=49	=49	=49	=49	=49	=49	=49	=49	=49	=49	=49	=49
2ryy	2ryy	2ryy	2ryy	8b\L	pa-	2ryy	2ryy	2ryy	2ryy	2ryy	2ryy
.	.	.	.	8a\J	.	.	.	.	.	.	.
.	.	.	.	8g#X\L	.	.	.	.	.	.	.
.	.	.	.	8f#/J	.	.	.	.	.	.	.
!	!	!	!	!LO:LB:g=original	!	!	!	!	!	!	!
=50	=50	=50	=50	=50	=50	=50	=50	=50	=50	=50	=50
!	!	!	!	!LO:SIC:s=:v:8g#	!	!	!	!	!	!	!
2ryy	2ryy	2ryy	2ryy	8g\L	.	2ryy	2ryy	2ryy	2ryy	2ryy	2ryy
.	.	.	.	8a\J	.	.	.	.	.	.	.
.	.	.	.	8b\L	-cem	.	.	.	.	.	.
.	.	.	.	8cc#\J	.	.	.	.	.	.	.
=51	=51	=51	=51	=51	=51	=51	=51	=51	=51	=51	=51
2ryy	2ryy	2ryy	2ryy	8b\L	da	2ryy	2ryy	2ryy	2ryy	2ryy	2ryy
.	.	.	.	8a\J	pa-	.	.	.	.	.	.
.	.	.	.	8g#X\L	.	.	.	.	.	.	.
.	.	.	.	8f#/J	.	.	.	.	.	.	.
=52	=52	=52	=52	=52	=52	=52	=52	=52	=52	=52	=52
!	!	!	!	!LO:SIC:s=:v:4g#	!	!	!	!	!	!	!
2ryy	2ryy	2ryy	2ryy	4g\	-cem	2ryy	2ryy	2ryy	2ryy	2ryy	2ryy
.	.	.	.	4dd\	da	.	.	.	.	.	.
=53	=53	=53	=53	=53	=53	=53	=53	=53	=53	=53	=53
2ryy	2ryy	2ryy	2ryy	2dd\	pa-	2ryy	2ryy	2ryy	2ryy	2ryy	2ryy
=54	=54	=54	=54	=54	=54	=54	=54	=54	=54	=54	=54
2ryy	2ryy	2ryy	2ryy	4dd\	-cem	2ryy	2ryy	2ryy	2ryy	2ryy	2ryy
.	.	.	.	4dd\	da	.	.	.	.	.	.
=55	=55	=55	=55	=55	=55	=55	=55	=55	=55	=55	=55
2ryy	2ryy	2ryy	2ryy	2dd\	pa-	2ryy	2ryy	2ryy	2ryy	2ryy	2ryy
=56	=56	=56	=56	=56	=56	=56	=56	=56	=56	=56	=56
2ryy	2ryy	2ryy	2ryy	4dd\	-cem	2ryy	2ryy	2ryy	2ryy	2ryy	2ryy
.	.	.	.	4ff#\	da	.	.	.	.	.	.
=57	=57	=57	=57	=57	=57	=57	=57	=57	=57	=57	=57
2ryy	2ryy	2ryy	2ryy	4ee\	pa-	2ryy	2ryy	2ryy	2ryy	2ryy	2ryy
.	.	.	.	8ff#\	-cem	.	.	.	.	.	.
.	.	.	.	8ff#\	da	.	.	.	.	.	.
=58	=58	=58	=58	=58	=58	=58	=58	=58	=58	=58	=58
2ryy	2ryy	2ryy	2ryy	2ee\	pa-	2ryy	2ryy	2ryy	2ryy	2ryy	2ryy
=59	=59	=59	=59	=59	=59	=59	=59	=59	=59	=59	=59
2ryy	2ryy	2ryy	2ryy	4ff#\	-cem	2ryy	2ryy	2ryy	2ryy	2ryy	2ryy
.	.	.	.	4dd\	da	.	.	.	.	.	.
!	!	!	!	!LO:LB:g=original	!	!	!	!	!	!	!
=60	=60	=60	=60	=60	=60	=60	=60	=60	=60	=60	=60
2ryy	2ryy	2ryy	2ryy	2dd\	pa-	2ryy	2ryy	2ryy	2ryy	2ryy	2ryy
=61	=61	=61	=61	=61	=61	=61	=61	=61	=61	=61	=61
2ryy	2ryy	2ryy	2ryy	2dd\	.	2ryy	2ryy	2ryy	2ryy	2ryy	2ryy
=62	=62	=62	=62	=62	=62	=62	=62	=62	=62	=62	=62
2ryy	2ryy	2ryy	2ryy	4ee\	-cem	2ryy	2ryy	2ryy	2ryy	2ryy	2ryy
.	.	.	.	4ff#\	da	.	.	.	.	.	.
=63	=63	=63	=63	=63	=63	=63	=63	=63	=63	=63	=63
2ryy	2ryy	2ryy	2ryy	2ee\	pa-	2ryy	2ryy	2ryy	2ryy	2ryy	2ryy
=64	=64	=64	=64	=64	=64	=64	=64	=64	=64	=64	=64
2ryy	2ryy	2ryy	2ryy	4dd\	-cem	2ryy	2ryy	2ryy	2ryy	2ryy	2ryy
.	.	.	.	4ff#\	da	.	.	.	.	.	.
=65	=65	=65	=65	=65	=65	=65	=65	=65	=65	=65	=65
2ryy	2ryy	2ryy	2ryy	2ff#\	pa-	2ryy	2ryy	2ryy	2ryy	2ryy	2ryy
=66	=66	=66	=66	=66	=66	=66	=66	=66	=66	=66	=66
2ryy	2ryy	2ryy	2ryy	4ee\	-cem	2ryy	2ryy	2ryy	2ryy	2ryy	2ryy
.	.	.	.	4ee\	da	.	.	.	.	.	.
=67	=67	=67	=67	=67	=67	=67	=67	=67	=67	=67	=67
2ryy	2ryy	2ryy	2ryy	2ff#\	pa-	2ryy	2ryy	2ryy	2ryy	2ryy	2ryy
=68	=68	=68	=68	=68	=68	=68	=68	=68	=68	=68	=68
2ryy	2ryy	2ryy	2ryy	4ee\	-cem	2ryy	2ryy	2ryy	2ryy	2ryy	2ryy
.	.	.	.	4ee\	da	.	.	.	.	.	.
=69	=69	=69	=69	=69	=69	=69	=69	=69	=69	=69	=69
2ryy	2ryy	2ryy	2ryy	4ee\	pa-	2ryy	2ryy	2ryy	2ryy	2ryy	2ryy
.	.	.	.	8ee\	-cem	.	.	.	.	.	.
.	.	.	.	8ee\	da	.	.	.	.	.	.
=70	=70	=70	=70	=70	=70	=70	=70	=70	=70	=70	=70
2ryy	2ryy	2ryy	2ryy	2gg\	pa-	2ryy	2ryy	2ryy	2ryy	2ryy	2ryy
!	!	!	!	!LO:LB:g=original	!	!	!	!	!	!	!
=71	=71	=71	=71	=71	=71	=71	=71	=71	=71	=71	=71
2ryy	2ryy	2ryy	2ryy	4ff#\	-cem	2ryy	2ryy	2ryy	2ryy	2ryy	2ryy
.	.	.	.	4dd\	da	.	.	.	.	.	.
=72	=72	=72	=72	=72	=72	=72	=72	=72	=72	=72	=72
2ryy	2ryy	2ryy	2ryy	2dd\	pa-	2ryy	2ryy	2ryy	2ryy	2ryy	2ryy
=73	=73	=73	=73	=73	=73	=73	=73	=73	=73	=73	=73
2ryy	2ryy	2ryy	2ryy	2dd\	.	2ryy	2ryy	2ryy	2ryy	2ryy	2ryy
=74	=74	=74	=74	=74	=74	=74	=74	=74	=74	=74	=74
2ryy	2ryy	2ryy	2ryy	4ee\	-cem	2ryy	2ryy	2ryy	2ryy	2ryy	2ryy
.	.	.	.	4ff#\	da	.	.	.	.	.	.
=75	=75	=75	=75	=75	=75	=75	=75	=75	=75	=75	=75
2ryy	2ryy	2ryy	2ryy	4ee\	pa-	2ryy	2ryy	2ryy	2ryy	2ryy	2ryy
.	.	.	.	4ee\	-cem	.	.	.	.	.	.
=76	=76	=76	=76	=76	=76	=76	=76	=76	=76	=76	=76
2ryy	2ryy	2ryy	2ryy	8ff#\	do-	2ryy	2ryy	2ryy	2ryy	2ryy	2ryy
.	.	.	.	8ff#\	-na	.	.	.	.	.	.
.	.	.	.	4ff#\	no-	.	.	.	.	.	.
=77	=77	=77	=77	=77	=77	=77	=77	=77	=77	=77	=77
2ryy	2ryy	2ryy	2ryy	4ff#\	-bis	2ryy	2ryy	2ryy	2ryy	2ryy	2ryy
.	.	.	.	4r	.	.	.	.	.	.	.
=78	=78	=78	=78	=78	=78	=78	=78	=78	=78	=78	=78
!	!	!	!	!LO:N:vis=0	!	!	!	!	!	!	!
2ryy	2ryy	2ryy	2ryy	1r	.	2ryy	2ryy	2ryy	2ryy	2ryy	2ryy
=79	=79	=79	=79	=79	=79	=79	=79	=79	=79	=79	=79
2ryy	2ryy	2ryy	2ryy	.	.	2ryy	2ryy	2ryy	2ryy	2ryy	2ryy
=80	=80	=80	=80	=80	=80	=80	=80	=80	=80	=80	=80
2ryy	2ryy	2ryy	2ryy	2r	.	2ryy	2ryy	2ryy	2ryy	2ryy	2ryy
=81	=81	=81	=81	=81	=81	=81	=81	=81	=81	=81	=81
2ryy	2ryy	2ryy	2ryy	4r	.	2ryy	2ryy	2ryy	2ryy	2ryy	2ryy
.	.	.	.	8r	.	.	.	.	.	.	.
.	.	.	.	8ff#\	pa-	.	.	.	.	.	.
=82	=82	=82	=82	=82	=82	=82	=82	=82	=82	=82	=82
2ryy	2ryy	2ryy	2ryy	4gg\	.	2ryy	2ryy	2ryy	2ryy	2ryy	2ryy
.	.	.	.	4ee\	.	.	.	.	.	.	.
!	!	!	!	!LO:PB:g=original	!	!	!	!	!	!	!
=83	=83	=83	=83	=83	=83	=83	=83	=83	=83	=83	=83
2ryy	2ryy	2ryy	2ryy	4ff#\	-cem	2ryy	2ryy	2ryy	2ryy	2ryy	2ryy
.	.	.	.	4dd\	da	.	.	.	.	.	.
=84	=84	=84	=84	=84	=84	=84	=84	=84	=84	=84	=84
2ryy	2ryy	2ryy	2ryy	2dd\	pa-	2ryy	2ryy	2ryy	2ryy	2ryy	2ryy
=85	=85	=85	=85	=85	=85	=85	=85	=85	=85	=85	=85
2ryy	2ryy	2ryy	2ryy	2dd\	.	2ryy	2ryy	2ryy	2ryy	2ryy	2ryy
=86	=86	=86	=86	=86	=86	=86	=86	=86	=86	=86	=86
2ryy	2ryy	2ryy	2ryy	4ee\	-cem	2ryy	2ryy	2ryy	2ryy	2ryy	2ryy
.	.	.	.	4ff#\	da	.	.	.	.	.	.
=87	=87	=87	=87	=87	=87	=87	=87	=87	=87	=87	=87
2ryy	2ryy	2ryy	2ryy	2ee\	pa-	2ryy	2ryy	2ryy	2ryy	2ryy	2ryy
=88	=88	=88	=88	=88	=88	=88	=88	=88	=88	=88	=88
2ryy	2ryy	2ryy	2ryy	2ff#\	-cem	2ryy	2ryy	2ryy	2ryy	2ryy	2ryy
=89	=89	=89	=89	=89	=89	=89	=89	=89	=89	=89	=89
2ryy	2ryy	2ryy	2ryy	2ee\	da	2ryy	2ryy	2ryy	2ryy	2ryy	2ryy
=90	=90	=90	=90	=90	=90	=90	=90	=90	=90	=90	=90
2ryy	2ryy	2ryy	2ryy	2ff#\	pa-	2ryy	2ryy	2ryy	2ryy	2ryy	2ryy
=91	=91	=91	=91	=91	=91	=91	=91	=91	=91	=91	=91
2ryy	2ryy	2ryy	2ryy	2ee\	.	2ryy	2ryy	2ryy	2ryy	2ryy	2ryy
=92	=92	=92	=92	=92	=92	=92	=92	=92	=92	=92	=92
2ryy	2ryy	2ryy	2ryy	2ff#\	-cem	2ryy	2ryy	2ryy	2ryy	2ryy	2ryy
==	==	==	==	==;	==	==	==	==	==	==	==
*-	*-	*-	*-	*-	*-	*-	*-	*-	*-	*-	*-
!!!system-decoration: [(s1,s2)][(s3,s4,s5,s6)][(s7,s8)][(s9,s10)]s11
!!!EED: Leszek Kubiak
!!!EST: 2020-10-06
!!!AIN: 5 empty 2 oboe 1 tenor 2 violn 1 vox
!!!ENC: Andrzej Kubiczek
!!!END: 2020-05-18
